nova/resources/svg/fluent/info.svg

<svg viewBox="0 0 24 24" fill="none" xmlns="http://www.w3.org/2000/svg">
<path d="M12.0001 1.99902C17.5238 1.99902 22.0016 6.47687 22.0016 12.0006C22.0016 17.5243 17.5238 22.0021 12.0001 22.0021C6.47638 22.0021 1.99854 17.5243 1.99854 12.0006C1.99854 6.47687 6.47638 1.99902 12.0001 1.99902ZM12.0001 3.49902C7.30481 3.49902 3.49854 7.3053 3.49854 12.0006C3.49854 16.6959 7.30481 20.5021 12.0001 20.5021C16.6954 20.5021 20.5016 16.6959 20.5016 12.0006C20.5016 7.3053 16.6954 3.49902 12.0001 3.49902ZM11.9964 10.4996C12.3761 10.4994 12.6901 10.7813 12.74 11.1473L12.7469 11.2491L12.7505 16.7507C12.7508 17.1649 12.4152 17.5009 12.001 17.5012C11.6213 17.5014 11.3073 17.2195 11.2574 16.8535L11.2505 16.7517L11.2469 11.2501C11.2467 10.8359 11.5822 10.4999 11.9964 10.4996ZM12.0005 7.00184C12.5521 7.00184 12.9992 7.44896 12.9992 8.0005C12.9992 8.55205 12.5521 8.99917 12.0005 8.99917C11.449 8.99917 11.0019 8.55205 11.0019 8.0005C11.0019 7.44896 11.449 7.00184 12.0005 7.00184Z" fill="currentColor"/>
</svg>

<svg viewBox="0 0 24 24" fill="none" xmlns="http://www.w3.org/2000/svg"><path d="M12 1.999C17.523 1.999 22 6.477 22 12.001c0 5.523-4.478 10.001-10.001 10.001-5.524 0-10.002-4.478-10.002-10.001C1.998 6.477 6.476 1.998 12 1.998zm0 1.5a8.502 8.502 0 100 17.003A8.502 8.502 0 0012 3.5zm-.004 7a.75.75 0 01.743.648l.007.102.004 5.502a.75.75 0 01-1.493.102l-.007-.101-.004-5.502a.75.75 0 01.75-.75zM12 7.002a.999.999 0 110 1.997.999.999 0 010-1.997z" fill="currentColor"/></svg>
